dist/img/svg/phone.svg

<svg width="24" height="24" viewBox="0 0 24 24" fill="none" xmlns="http://www.w3.org/2000/svg">
<path d="M20 13.18V11C20 8.87827 19.1571 6.84344 17.6569 5.34315C16.1566 3.84285 14.1217 3 12 3C9.87827 3 7.84344 3.84285 6.34315 5.34315C4.84285 6.84344 4 8.87827 4 11V13.18C3.41645 13.3863 2.911 13.7681 2.55294 14.2729C2.19488 14.7778 2.00174 15.3811 2 16V18C2 18.7956 2.31607 19.5587 2.87868 20.1213C3.44129 20.6839 4.20435 21 5 21H8C8.26522 21 8.51957 20.8946 8.70711 20.7071C8.89464 20.5196 9 20.2652 9 20V14C9 13.7348 8.89464 13.4804 8.70711 13.2929C8.51957 13.1054 8.26522 13 8 13H6V11C6 9.4087 6.63214 7.88258 7.75736 6.75736C8.88258 5.63214 10.4087 5 12 5C13.5913 5 15.1174 5.63214 16.2426 6.75736C17.3679 7.88258 18 9.4087 18 11V13H16C15.7348 13 15.4804 13.1054 15.2929 13.2929C15.1054 13.4804 15 13.7348 15 14V20C15 20.2652 15.1054 20.5196 15.2929 20.7071C15.4804 20.8946 15.7348 21 16 21H19C19.7956 21 20.5587 20.6839 21.1213 20.1213C21.6839 19.5587 22 18.7956 22 18V16C21.9983 15.3811 21.8051 14.7778 21.4471 14.2729C21.089 13.7681 20.5835 13.3863 20 13.18ZM7 15V19H5C4.73478 19 4.48043 18.8946 4.29289 18.7071C4.10536 18.5196 4 18.2652 4 18V16C4 15.7348 4.10536 15.4804 4.29289 15.2929C4.48043 15.1054 4.73478 15 5 15H7ZM20 18C20 18.2652 19.8946 18.5196 19.7071 18.7071C19.5196 18.8946 19.2652 19 19 19H17V15H19C19.2652 15 19.5196 15.1054 19.7071 15.2929C19.8946 15.4804 20 15.7348 20 16V18Z" fill="white"/>
</svg>

<svg width="24" height="24" fill="none" xmlns="http://www.w3.org/2000/svg"><path d="M20 13.18V11a8 8 0 00-16 0v2.18A3 3 0 002 16v2a3 3 0 003 3h3a1 1 0 001-1v-6a1 1 0 00-1-1H6v-2a6 6 0 1112 0v2h-2a1 1 0 00-1 1v6a1 1 0 001 1h3a3 3 0 003-3v-2a3 3 0 00-2-2.82zM7 15v4H5a1 1 0 01-1-1v-2a1 1 0 011-1h2zm13 3a1 1 0 01-1 1h-2v-4h2a1 1 0 011 1v2z" fill="#fff"/></svg>
